X:2152
T:Gandzia Polka
O:england
D:Early Mandolin Classics
M:2/4
L:1/8
K:Dm
A/f/f/e/ e/d/d/A/|cB/c/ B/A/B|A^cdg a3g|gf/g/ f/e/f|Af/e/ e/d/d/A/|
cB/c/ B/A/B|A^c/e/ a/g/f/e/|df d z||:c/d/e/f/ gb|ba/b/ a/^g/a|
ag/a/ g/^f/g|gf/g/ f/e/f|A/=B/^c/d/ eg|gf/g/ f/e/f|A/^c/e/g/ ac|
dd/^c/ d z::c/d/c/=B/ cA|c/d/c/f/ a4|a/g/g/b/ e4|g/f/f/a/ c4|
c/d/c/=B/ cA|c/d/c/f/ a4|a/g/g/b/ de|f/g/f/e/ f z :|]
